X:1
T:Purcell
T:When I am laid in earth.
%%score 1 { ( 2 4 ) | ( 3 5 6 ) }
L:1/8
Q:1/4=72
M:3/2
K:A
V:1 treble nm="Soprano" snm="S."
V:2 treble 
V:4 treble 
V:3 bass 
V:5 bass 
V:6 bass 
V:1
"^Adagio lamentoso""^Adagio lamentoso" z4 | z12 | z12 | z12 | z12 | F4 G4 A4 |: (A4 G4) ^A4 | %7
w: |||||When I am|la- id, am|
 (B3 A G3 F ^E3) F | ^E8 c3 d | (c3 B PA7) G | A8 d4 | (d2 G2) G4 c4 | (cF) F2 (G4 PF3) ^E | %13
w: la- * * * id in|earth, may my|wro- * ngs cre-|ate no|trou- * ble. no|trou- * ble in,- * thy|
 G8 z4 |1 z12 | F4 G4 A4 :|2 z8 z2 z c | c3 c c4 z4 || z8 z2 z c | c3 c c4 z4 | z8 c4 | %21
w: breast.||When I am|Re-|mem- ber me,|Re-|mem- ber me,|but|
 (B4 A4 B2 G2 | A3) B PB7 c | c8 z2 z c | f3 f f7 B | (cd e4 d2 c4) | (B2 A2) A4 (G2 F2) | %27
w: ah!- * * *|* For- get my|fate. Re-|mem- ber me, but|ah!- * * * *|For- * get my- *|
 F8 z2 z c | c3 c c4 z4 | z8 z2 z c | c3 c c4 z2 z c | (B4 A4 B2 G2 | A3) B PB7 c | c8 z2 z c | %34
w: fate. Re-|mem- ber me,|re-|mem- ber me, but|ah!- * For- *|guet- * * my|fate. Re-|
 f3 f f7 B | (cd e4 d2 c4) | (B2 A2) A2 TG2 (PG2 F2) | F12 | z12 | z12 | z12 | z12 | z12 | z12 | %44
w: mem- ber me, but|ah!- * * * *|For- * get my- * *|fate.|||||||
 z12 | z12 | z12 | z12 |] %48
w: ||||
V:2
!pp! z4 | z12 | z12 | z12 | z12 | [A,C]8 [A,C]4 |: [B,C]8 C4 | C4 B,8 | [B,C]8 [A,C]4 | %9
 [G,D]4 [G,C]8 | C4 F4 F4 | G8 A2 G2 | F4 ^E4 F4 | [B,^E]8 [CF]4 |1 [DF]4 P[C^E]8 | F4 C8 :|2 %16
 [DF]4 P[C^E]8 | [CF]8 [CA]4 || (A4 G4) G4 | (G4 F4) B4 | (B4 A4) A4 | (G4 F4) G2 ^E2 | F4 G8 | %23
 G8 c4 | c4 B8 | B4 A8 | G2 F2 F4 ^E4 | F8 A4 | (A4 G4) G4 | (G4 F4) B4 | (B4 A4) A4 | %31
 (G4 F4) G2 ^E2 | F4 G8 | G8 c4 | c4 B8 | B4 A8 | G2 F2 F4 ^E4 | F8 A4 | (A4 G4) [Gc]4 | %39
 (c4 ^B4) =B4 | B4 ^A4 f4 | (([Af]4 [G^e]4)) [c=e]4 | (e4 ^d4) =d4 | (d4 c4) c4 | (c4 ^B4) =B4 | %45
 (B4 ^A4) =A4 | G4 PG7 F | F12 |] %48
V:3
 F,4 | ^E,8 =E,4 | ^D,8 =D,4 | C,8 A,,4 | B,,4 C,8 | [F,,F,]8 F,4 |: [^E,G,]8 [=E,G,]4 | %7
 [^D,F,]8 [=D,F,]4 | [C,G,]8 [A,,F,]4 | x12 | F,,8 F,4 | [^E,G,]8 [=E,G,]4 | A,4 C8 | %13
 [C,G,]8 [A,,A,]4 |1 G,4 G,8 | A,4 G,4 F,4 :|2 G,4 G,8 | [F,,A,]8 [F,A,]4 || [^E,B,]8 [=E,G,]4 | %19
 [^D,A,]8 [=D,F,]4 | [C,G,]8 [A,,F,]4 | G,4 A,4 G,4 | F,4 ^E,4 F,4 | G,8 G,4 | F,4 B,4 =D4 | %25
 G,4 C8 | E,4 C4 B,4 | A,8 A,4 | B,8 G,4 | A,4 B,2 A,2 G,2 F,2 | G,8 F,4 | G,4 A,4 G,4 | %32
 F,4 ^E,4 F,4 | G,8 G,4 | F,4 B,4 =D4 | G,4 C8 | F,4 C4 B,4 | [F,,A,]8 F,4 | ^E,8 =E,4 | %39
 ^D,8 =D,4 | C,8 [A,,C]4 | [B,,D]4 [C,C]4 C,,4 | F,,8 [F,B,]4 | [^E,C]8 [=E,C]4 | [^D,F,]8 =D,4 | %45
 ^E8 C4 | D4 C7 C | C12 |] %48
V:4
 x4 | x12 | x12 | x12 | x12 | x12 |: x12 | F8 B,4 | x12 | x12 | F,8 [A,D]4 | [B,D]4 C8 | C4 B,8 | %13
 x12 |1 x12 | C4 B,4 A,4 :|2 x12 | x12 || (C4 D4) C4 | F8 F4 | ^E8 F4 | D4 C8 | C4 D8 | C8 G4 | %24
 A7 G F4 | G8 F4 | D4 C8 | C8 C4 | C8 C4 | C4 ^D2 ^E2 F4 | ^E8 F4 | D4 C8 | C4 D8 | C8 G4 | %34
 A7 G F4 | G8 F4 | D4 C8 | C12 | x12 | (G4 F7) G | ^E8 =A4 | x12 | c7 c B3 A | G8 G4 | A7 G F4 | %45
 G8 F4 | F4 ^E7 F | x12 |] %48
V:5
 x4 | x12 | x12 | x12 | x12 | x12 |: x12 | x12 | x12 | F,8 ^E,4 | x12 | x12 | ^D,8 =D,4 | x12 |1 %14
 B,,4 C,4 C,,4 | F,,8 F,4 :|2 B,,4 C,4 C,,4 | x12 || x12 | x12 | x12 | B,,4 C,4 C,,4 | F,,8 F,4 | %23
 ^E,8 =E,4 | ^D,8 =D,4 | C,8 A,,4 | B,,4 C,4 C,,4 | F,,8 F,4 | ^E,8 =E,4 | ^D,8 =D,4 | C,8 A,,4 | %31
 B,,4 C,4 C,,4 | F,,8 F,4 | ^E,8 =E,4 | ^D,8 =D,4 | C,8 A,,4 | B,,4 C,4 C,,4 | x12 | x12 | x12 | %40
 x12 | x12 | x12 | x12 | x12 | C,8 A,,4 | B,,4 C,4 C,,4 | F,,12 |] %48
V:6
 x4 | x12 | x12 | x12 | x12 | x12 |: x12 | x12 | x12 | B,,4 C,4 C,,4 | x12 | x12 | x12 | x12 |1 %14
 x12 | x12 :|2 x12 | x12 || x12 | x12 | x12 | x12 | x12 | x12 | x12 | x12 | x12 | x12 | x12 | x12 | %30
 x12 | x12 | x12 | x12 | x12 | x12 | x12 | x12 | x12 | x12 | x12 | x12 | x12 | x12 | x12 | x12 | %46
 x12 | x12 |] %48

